X:37
T:Joe the Jigger
R:jig
C:Paul M. MacDonald
O:20th Century Cape Breton
D:The Lighthouse, Cranford Publications
B:The Lighthouse Collection, ISBN 0-9691181-5-5
N:Contacts ...
N:..... Cranford Publications <http://www.cranfordpub.com>
N:Copyrights: ...  
Z:This abc transcription is for personal use only,
Z:provided this notice remains attached.
Z:Used by permission of the composer and publisher.
Z:Paul Stewart Cranford 
Q:300
L:1/8
M:6/8
K:D
DFF AFF|d2 B AFA|B2 B BAF|BdB BAF|!
DFF AFF|d2 B AFA|B2 B BAF|EFE D2 D:|!
|:Add fdd|e2 e fdB|Add fdd|efe efg|agf gag|!
fed edB|[1AAA BAF|AdA BAF:|[2dBA BAF|AFE EFD|]!
